DevCon_2019/Icons/SVG/icon_rsvp_success.svg

<svg height="107" viewBox="0 0 116 107" width="116" xmlns="http://www.w3.org/2000/svg"><g fill="none" fill-rule="evenodd"><path d="m33.4999213 51.5001037c-.8749988 0-1.5937462-.2812493-2.1562448-.843748-.5624987-.5624986-.843748-1.281246-.843748-2.1562448v-2.9999929c0-.8749989.2812493-1.5937462.843748-2.1562448.5624986-.5624987 1.281246-.843748 2.1562448-.843748h29.9999285c.8749989 0 1.5937462.2812493 2.1562449.843748.5624986.5624986.8437479 1.2812459.8437479 2.1562448v2.9999929c0 .8749988-.2812493 1.5937462-.8437479 2.1562448-.5624987.5624987-1.281246.843748-2.1562449.843748zm-2.9999928 14.9999642v-2.9999928c0-.8749989.2812493-1.5937462.843748-2.1562449.5624986-.5624986 1.281246-.8437479 2.1562448-.8437479h29.9999285c.8749989 0 1.5937462.2812493 2.1562449.8437479.5624986.5624987.8437479 1.281246.8437479 2.1562449v2.9999928c0 .8749989-.2812493 1.5937462-.8437479 2.1562449-.5624987.5624987-1.281246.843748-2.1562449.843748h-29.9999285c-.8749988 0-1.5937462-.2812493-2.1562448-.843748-.5624987-.5624987-.843748-1.281246-.843748-2.1562449zm17.9999571 22.687446c3.2499913 0 6.1874852-.9374978 8.8124789-2.8124933l39.1874066-28.3124325v39.9374047c0 2.4999932-.8749988 4.6249902-2.6249937 6.3749852s-3.8749917 2.624993-6.3749848 2.624993h-77.99981406c-2.49999308 0-4.62498992-.874998-6.3749848-2.624993-1.74999487-1.749995-2.62499374-3.874992-2.62499374-6.3749852v-39.9374047l39.1874066 28.3124325c2.6249937 1.8749955 5.5624877 2.8124933 8.812479 2.8124933zm44.6248936-47.6248865c2.2499946 1.7499949 3.3749919 4.1249902 3.3749919 7.124983v1.8749955l-17.9999571 13.1249688v-34.6874173h-59.9998569v34.6874173l-17.9999571-13.1249688v-1.8749955c0-2.9999928 1.12499732-5.3749881 3.37499195-7.124983l5.62498659-4.3124897v-8.2499803c0-2.4999931.87499886-4.62499 2.62499376-6.3749848 1.7499949-1.7499949 3.8749917-2.6249938 6.3749848-2.6249938h14.6249651l3.374992-2.6249937c2.4999931-1.9999962 4.4999892-3.374992 5.9999857-4.1249902 2.3749953-1.4999964 4.3749886-2.2499946 5.9999857-2.2499946 1.624997 0 3.6249904.7499982 5.9999857 2.2499946 1.4999964.8749989 3.4999926 2.2499946 5.9999856 4.1249902l3.374992 2.6249937h14.6249651c2.4999931 0 4.62499.8749989 6.3749848 2.6249938 1.7499949 1.7499948 2.6249938 3.8749917 2.6249938 6.3749848v8.2499803c1.7499948 1.3749958 3.6249904 2.8124933 5.6249866 4.3124897z" fill="#0b132b" opacity=".704567"/><circle cx="95" cy="21" fill="#95c93b" r="18"/><path d="m95 42c-11.5979797 0-21-9.4020203-21-21 0-11.59797975 9.4020203-21 21-21 11.59798 0 21 9.40202025 21 21 0 11.5979797-9.40202 21-21 21zm0-6c8.284271 0 15-6.7157288 15-15s-6.715729-15-15-15c-8.2842712 0-15 6.7157288-15 15s6.7157288 15 15 15z" fill="#eef0f2" fill-rule="nonzero"/><path d="m91.7968588 28.6484383-6.523422-6.4843595c-.1822914-.1822914-.2734368-.4166659-.2734368-.7031233 0-.2864575.0911454-.5208319.2734368-.7031233l1.4453091-1.4062467c.1822914-.2083326.4101553-.3124993.6835921-.3124993.2734369 0 .5143219.1041667.7226545.3124993l4.3749896 4.3749896 9.3749779-9.3749777c.208332-.2083326.449217-.3124992.722654-.3124992s.501301.1041666.683592.3124992l1.445309 1.4062467c.182292.1822914.273437.4166658.273437.7031233 0 .2864574-.091145.5208319-.273437.7031233l-11.5234096 11.4843476c-.1822914.2083327-.4166658.3124993-.7031233.3124993-.2864574 0-.5208319-.1041666-.7031233-.3124993z" fill="#fff"/></g></svg>

<?xml version="1.0" encoding="UTF-8"?>
<svg width="116px" height="107px" viewBox="0 0 116 107" version="1.1" xmlns="http://www.w3.org/2000/svg" xmlns:xlink="http://www.w3.org/1999/xlink">
    <!-- Generator: Sketch 52.6 (67491) - http://www.bohemiancoding.com/sketch -->
    <title>Group Copy</title>
    <desc>Created with Sketch.</desc>
    <g id="Page-1" stroke="none" stroke-width="1" fill="none" fill-rule="evenodd">
        <g id="DESKTOP-1440PX---RSVP---#2-Success" transform="translate(-676.000000, -253.000000)">
            <g id="MODAL" transform="translate(417.000000, 100.000000)">
                <g id="SPEAKER-DESCRIPTION" transform="translate(0.000000, 57.000000)">
                    <g id="Group-Copy" transform="translate(259.000000, 96.000000)">
                        <path d="M33.4999213,51.5001037 C32.6249225,51.5001037 31.9061751,51.2188544 31.3436765,50.6563557 C30.7811778,50.0938571 30.4999285,49.3751097 30.4999285,48.5001109 L30.4999285,45.500118 C30.4999285,44.6251191 30.7811778,43.9063718 31.3436765,43.3438732 C31.9061751,42.7813745 32.6249225,42.5001252 33.4999213,42.5001252 L63.4998498,42.5001252 C64.3748487,42.5001252 65.093596,42.7813745 65.6560947,43.3438732 C66.2185933,43.9063718 66.4998426,44.6251191 66.4998426,45.500118 L66.4998426,48.5001109 C66.4998426,49.3751097 66.2185933,50.0938571 65.6560947,50.6563557 C65.093596,51.2188544 64.3748487,51.5001037 63.4998498,51.5001037 L33.4999213,51.5001037 Z M30.4999285,66.5000679 L30.4999285,63.5000751 C30.4999285,62.6250762 30.7811778,61.9063289 31.3436765,61.3438302 C31.9061751,60.7813316 32.6249225,60.5000823 33.4999213,60.5000823 L63.4998498,60.5000823 C64.3748487,60.5000823 65.093596,60.7813316 65.6560947,61.3438302 C66.2185933,61.9063289 66.4998426,62.6250762 66.4998426,63.5000751 L66.4998426,66.5000679 C66.4998426,67.3750668 66.2185933,68.0938141 65.6560947,68.6563128 C65.093596,69.2188115 64.3748487,69.5000608 63.4998498,69.5000608 L33.4999213,69.5000608 C32.6249225,69.5000608 31.9061751,69.2188115 31.3436765,68.6563128 C30.7811778,68.0938141 30.4999285,67.3750668 30.4999285,66.5000679 Z M48.4998856,89.1875139 C51.7498769,89.1875139 54.6873708,88.2500161 57.3123645,86.3750206 L96.4997711,58.0625881 L96.4997711,97.9999928 C96.4997711,100.499986 95.6247723,102.624983 93.8747774,104.374978 C92.1247825,106.124973 89.9997857,106.999971 87.4997926,106.999971 L9.49997854,106.999971 C6.99998546,106.999971 4.87498862,106.124973 3.12499374,104.374978 C1.37499887,102.624983 0.5,100.499986 0.5,97.9999928 L0.5,58.0625881 L39.6874066,86.3750206 C42.3124003,88.2500161 45.2498943,89.1875139 48.4998856,89.1875139 Z M93.1247792,41.5626274 C95.3747738,43.3126223 96.4997711,45.6876176 96.4997711,48.6876104 L96.4997711,50.5626059 L78.499814,63.6875747 L78.499814,29.0001574 L18.4999571,29.0001574 L18.4999571,63.6875747 L0.5,50.5626059 L0.5,48.6876104 C0.5,45.6876176 1.62499732,43.3126223 3.87499195,41.5626274 L9.49997854,37.2501377 L9.49997854,29.0001574 C9.49997854,26.5001643 10.3749774,24.3751674 12.1249723,22.6251726 C13.8749672,20.8751777 15.999964,20.0001788 18.4999571,20.0001788 L33.1249222,20.0001788 L36.4999142,17.3751851 C38.9999073,15.3751889 40.9999034,14.0001931 42.4998999,13.2501949 C44.8748952,11.7501985 46.8748885,11.0002003 48.4998856,11.0002003 C50.1248826,11.0002003 52.124876,11.7501985 54.4998713,13.2501949 C55.9998677,14.1251938 57.9998639,15.5001895 60.4998569,17.3751851 L63.8748489,20.0001788 L78.499814,20.0001788 C80.9998071,20.0001788 83.124804,20.8751777 84.8747988,22.6251726 C86.6247937,24.3751674 87.4997926,26.5001643 87.4997926,29.0001574 L87.4997926,37.2501377 C89.2497874,38.6251335 91.124783,40.062631 93.1247792,41.5626274 Z" id="" fill="#0B132B" opacity="0.704566592"></path>
                        <circle id="Oval-Copy" fill="#95C93B" cx="95" cy="21" r="18"></circle>
                        <path d="M95,42 C83.4020203,42 74,32.5979797 74,21 C74,9.40202025 83.4020203,0 95,0 C106.59798,0 116,9.40202025 116,21 C116,32.5979797 106.59798,42 95,42 Z M95,36 C103.284271,36 110,29.2842712 110,21 C110,12.7157288 103.284271,6 95,6 C86.7157288,6 80,12.7157288 80,21 C80,29.2842712 86.7157288,36 95,36 Z" id="Oval" fill="#EEF0F2" fill-rule="nonzero"></path>
                        <path d="M91.7968588,28.6484383 L85.2734368,22.1640788 C85.0911454,21.9817874 85,21.7474129 85,21.4609555 C85,21.174498 85.0911454,20.9401236 85.2734368,20.7578322 L86.7187459,19.3515855 C86.9010373,19.1432529 87.1289012,19.0390862 87.402338,19.0390862 C87.6757749,19.0390862 87.9166599,19.1432529 88.1249925,19.3515855 L92.4999821,23.7265751 L101.87496,14.3515974 C102.083292,14.1432648 102.324177,14.0390982 102.597614,14.0390982 C102.871051,14.0390982 103.098915,14.1432648 103.281206,14.3515974 L104.726515,15.7578441 C104.908807,15.9401355 104.999952,16.1745099 104.999952,16.4609674 C104.999952,16.7474248 104.908807,16.9817993 104.726515,17.1640907 L93.2031054,28.6484383 C93.020814,28.856771 92.7864396,28.9609376 92.4999821,28.9609376 C92.2135247,28.9609376 91.9791502,28.856771 91.7968588,28.6484383 Z" id="" fill="#FFFFFF"></path>
                    </g>
                </g>
            </g>
        </g>
    </g>
</svg>
